svg/u1f92a.svg

<svg viewBox="0 0 128 128" xmlns="http://www.w3.org/2000/svg" xmlns:xlink="http://www.w3.org/1999/xlink">
  <g>
    <g id="gold">
      <radialGradient id="face_1_" cx="63.6" cy="808.9" gradientTransform="matrix(1 0 0 1 0 -746)" gradientUnits="userSpaceOnUse" r="56.9597">
        <stop offset="0.5" stop-color="#FDE030"/>
        <stop offset="0.92" stop-color="#F7C02B"/>
        <stop offset="1" stop-color="#F4A223"/>
      </radialGradient>
      <path id="face" d="M63.6,118.8c-27.9,0-58-17.5-58-55.9S35.7,7,63.6,7c15.5,0,29.8,5.1,40.4,14.4 c11.5,10.2,17.6,24.6,17.6,41.5s-6.1,31.2-17.6,41.4C93.4,113.6,79,118.8,63.6,118.8z" fill="url(#face_1_)"/>
      <path d="M111.49,29.67c5.33,8.6,8.11,18.84,8.11,30.23c0,16.9-6.1,31.2-17.6,41.4 c-10.6,9.3-25,14.5-40.4,14.5c-18.06,0-37-7.35-48.18-22.94c10.76,17.66,31,25.94,50.18,25.94c15.4,0,29.8-5.2,40.4-14.5 c11.5-10.2,17.6-24.5,17.6-41.4C121.6,50.16,118.13,38.84,111.49,29.67z" fill="#EB8F00"/>
    </g>
    <g id="facial_expressions">
      <g id="zany-face">
        <g id="mouth">
          <g>
            <defs>
              <path id="SVGID_1_" d="M66.8,76.5c-10.89,3.76-22.1,6.51-33.5,8.2c-1.92,0.25-3.27,2.02-3.02,3.94 c0.06,0.44,0.2,0.87,0.42,1.26c8.2,14.2,27.4,21.6,45.8,15.4c20.2-6.8,29.4-24.2,27.2-40.1c-0.27-1.9-2.03-3.22-3.92-2.95 c-0.45,0.06-0.88,0.22-1.28,0.45C88.36,68.22,77.75,72.83,66.8,76.5z"/>
            </defs>
            <clipPath id="SVGID_2_">
              <use overflow="visible" xlink:href="#SVGID_1_"/>
            </clipPath>
            <g clip-path="url(#SVGID_2_)">
              <linearGradient id="SVGID_3_" gradientTransform="matrix(1 0 0 -1 0 130)" gradientUnits="userSpaceOnUse" x1="30.2492" x2="104.0188" y1="45.1372" y2="45.1372">
                <stop offset="0" stop-color="#404040"/>
                <stop offset="0.12" stop-color="#3E3A35"/>
                <stop offset="0.44" stop-color="#392D1E"/>
                <stop offset="0.74" stop-color="#362510"/>
                <stop offset="1" stop-color="#35220B"/>
              </linearGradient>
              <path d="M66.8,76.5c-10.89,3.76-22.1,6.51-33.5,8.2c-1.92,0.25-3.27,2.02-3.02,3.94 c0.06,0.44,0.2,0.87,0.42,1.26c8.2,14.2,27.4,21.6,45.8,15.4c20.2-6.8,29.4-24.2,27.2-40.1c-0.27-1.9-2.03-3.22-3.92-2.95 c-0.45,0.06-0.88,0.22-1.28,0.45C88.36,68.22,77.75,72.83,66.8,76.5z" fill="url(#SVGID_3_)"/>
            </g>
          </g>
        </g>
        <g id="eyes">
          <path d="M80.4,22.9c9.94,0.09,17.93,8.22,17.84,18.16c-0.06,7.19-4.41,13.66-11.04,16.44 c-2.16,0.88-4.47,1.32-6.8,1.3c-9.94-0.09-17.93-8.22-17.84-18.16c0.06-7.19,4.41-13.66,11.04-16.44 C75.76,23.34,78.07,22.9,80.4,22.9" fill="#FFFFFF"/>
          <circle cx="80.4" cy="41" fill="#422B0D" r="7"/>
          <path d="M35.9,44.78c-6.69-0.01-12.12,5.41-12.13,12.09C23.76,63.56,29.18,68.99,35.87,69 c6.69,0.01,12.12-5.41,12.13-12.09c0-1.56-0.3-3.11-0.88-4.56C45.26,47.78,40.83,44.79,35.9,44.78z" fill="#FFFFFF"/>
          <circle cx="36" cy="57" fill="#422B0D" r="7"/>
        </g>
      </g>
      <path d="M44.74,90.85v18c0.01,9.47,7.7,17.15,17.17,17.15h3.27c9.48,0,17.17-7.69,17.17-17.17L82.11,80 L44.74,90.85z" fill="#FF4081"/>
      <polygon fill="#FF4081" points="82.08,75.91 44.74,87.1 44.74,90.85 82.11,79.95 "/>
      <path d="M63.55,106.25c1.1,0,2-0.9,2-2c0,0,0,0,0,0v-23.4l-4,1.14 v22.26C61.55,105.35,62.45,106.25,63.55,106.25z" enable-background="new " fill="#AB3F2E" opacity="0.3"/>
      <polygon enable-background="new " fill="#AB3F2E" opacity="0.3" points="82.08,75.91 44.74,87.1 44.74,90.85 82.11,79.95 "/>
    </g>
  </g>
</svg>

<svg viewBox="0 0 128 128" xmlns="http://www.w3.org/2000/svg">
  <defs>
    <radialGradient id="face_1_" cx="63.6" cy="62.9" gradientUnits="userSpaceOnUse" r="56.9597">
      <stop offset="0.5" stop-color="#FDE030"/>
      <stop offset="0.92" stop-color="#F7C02B"/>
      <stop offset="1" stop-color="#F4A223"/>
    </radialGradient>
    <linearGradient id="SVGID_3_" gradientTransform="matrix(1 0 0 -1 0 0)" gradientUnits="userSpaceOnUse" x1="30.2492" x2="104.0188" y1="-84.8628" y2="-84.8628">
      <stop offset="0" stop-color="#404040"/>
      <stop offset="0.12" stop-color="#3E3A35"/>
      <stop offset="0.44" stop-color="#392D1E"/>
      <stop offset="0.74" stop-color="#362510"/>
      <stop offset="1" stop-color="#35220B"/>
    </linearGradient>
  </defs>
  <path id="face" d="M63.6,118.8 C35.7,118.8 5.6,101.3 5.6,62.9 C5.6,24.5 35.7,7 63.6,7 C79.1,7 93.4,12.1 104,21.4 C115.5,31.6 121.6,46 121.6,62.9 C121.6,79.8 115.5,94.1 104,104.3 C93.4,113.6 79,118.8 63.6,118.8 Z" fill="url(#face_1_)"/>
  <path d="M111.49,29.67 C116.82,38.27 119.6,48.51 119.6,59.9 C119.6,76.8 113.5,91.1 102,101.3 C91.4,110.6 77,115.8 61.6,115.8 C43.54,115.8 24.6,108.45 13.42,92.86 C24.18,110.52 44.42,118.8 63.6,118.8 C79,118.8 93.4,113.6 104,104.3 C115.5,94.1 121.6,79.8 121.6,62.9 C121.6,50.16 118.13,38.84 111.49,29.67 Z" fill="#EB8F00"/>
  <path d="M66.8,76.5 C77.75,72.83 88.36,68.22 98.5,62.7 C98.9,62.47 99.33,62.31 99.78,62.25 C101.67,61.98 103.43,63.3 103.7,65.2 C105.9,81.1 96.7,98.5 76.5,105.3 C58.1,111.5 38.9,104.1 30.7,89.9 C30.48,89.51 30.34,89.08 30.28,88.64 C30.03,86.72 31.38,84.95 33.3,84.7 C44.7,83.01 55.91,80.26 66.8,76.5 Z" fill="url(#SVGID_3_)"/>
  <path d="M80.4,22.9 C90.34,22.99 98.33,31.12 98.24,41.06 C98.18,48.25 93.83,54.72 87.2,57.5 C85.04,58.38 82.73,58.82 80.4,58.8 C70.46,58.71 62.47,50.58 62.56,40.64 C62.62,33.45 66.97,26.98 73.6,24.2 C75.76,23.34 78.07,22.9 80.4,22.9" fill="#FFFFFF"/>
  <path d="M87.4,41 A7 7 0 1 1 73.4,41 A7 7 0 1 1 87.4,41 Z" fill="#422B0D"/>
  <path d="M35.9,44.78 C29.21,44.77 23.78,50.19 23.77,56.87 C23.76,63.56 29.18,68.99 35.87,69 C42.56,69.01 47.99,63.59 48,56.91 C48,55.35 47.7,53.8 47.12,52.35 C45.26,47.78 40.83,44.79 35.9,44.78 Z" fill="#FFFFFF"/>
  <path d="M43,57 A7 7 0 1 1 29,57 A7 7 0 1 1 43,57 Z" fill="#422B0D"/>
  <path d="M44.74,90.85 L44.74,108.85 C44.75,118.32 52.44,126 61.91,126 L65.18,126 C74.66,126 82.35,118.31 82.35,108.83 L82.11,80 L44.74,90.85 Z" fill="#FF4081"/>
  <path d="M82.08,75.91 L44.74,87.1 L44.74,90.85 L82.11,79.95 Z" fill="#FF4081"/>
  <path d="M63.55,106.25 C64.65,106.25 65.55,105.35 65.55,104.25 C65.55,104.25 65.55,104.25 65.55,104.25 L65.55,80.85 L61.55,81.99 L61.55,104.25 C61.55,105.35 62.45,106.25 63.55,106.25 Z" fill="#AB3F2E" opacity="0.3"/>
  <path d="M82.08,75.91 L44.74,87.1 L44.74,90.85 L82.11,79.95 Z" fill="#AB3F2E" opacity="0.3"/>
</svg>
